X: 10482
T: MORPETH RANT
R: hornpipe, reel
B: K\"ohler's Violin Repository, v.1, 1885 p.48 #2
F: http://www.archive.org/details/klersviolinrepos01edin
Z: 2011 John Chambers <jc:trillian.mit.edu>
M: C|
L: 1/8
K: G
uD2 |\
G2DC (B,G,)B,D | ECEG FDFA | BGBd cBAG | [F2A,2]AB (Ac)BA |
G2DC (B,G,)B,D | ECEG FDFA | Ggfe dcBA | B2G2 G2 :: ((3udef) |
g2bd (cB)AG | e2Bd (cB)AG | cdcB ABAG | F2D2 D2(G=F) |
ECEG cBAG | FDFA dcBA | Ggfe dcBA | B2G2 G2 :|

%%sep 2 1 500

